src/pos-icons/map-marker-distance.svg

<svg height="24" viewBox="0 0 24 24" width="24" xmlns="http://www.w3.org/2000/svg"><path d="m6.5 8.11c-.89 0-1.61-.72-1.61-1.61a1.61 1.61 0 0 1 1.61-1.61c.89 0 1.61.72 1.61 1.61a1.61 1.61 0 0 1 -1.61 1.61m0-6.11c-2.5 0-4.5 2-4.5 4.5 0 3.37 4.5 8.36 4.5 8.36s4.5-4.99 4.5-8.36c0-2.5-2-4.5-4.5-4.5m11 6.11a1.61 1.61 0 0 1 -1.61-1.61c0-.89.72-1.61 1.61-1.61s1.61.72 1.61 1.61a1.61 1.61 0 0 1 -1.61 1.61m0-6.11c-2.5 0-4.5 2-4.5 4.5 0 3.37 4.5 8.36 4.5 8.36s4.5-4.99 4.5-8.36c0-2.5-2-4.5-4.5-4.5m0 14c-1.27 0-2.4.8-2.82 2h-5.36c-.55-1.56-2.27-2.38-3.82-1.83-1.57.55-2.39 2.27-1.84 3.83.56 1.56 2.27 2.38 3.84 1.83.85-.3 1.5-.98 1.82-1.83h5.37c.55 1.56 2.27 2.38 3.81 1.83 1.58-.55 2.4-2.27 1.85-3.83-.43-1.2-1.57-2-2.85-2zm0 4.5a1.5 1.5 0 0 1 -1.5-1.5 1.5 1.5 0 0 1 1.5-1.5 1.5 1.5 0 0 1 1.5 1.5 1.5 1.5 0 0 1 -1.5 1.5z"/></svg>

<?xml version="1.0" encoding="UTF-8"?><!DOCTYPE svg PUBLIC "-//W3C//DTD SVG 1.1//EN" "http://www.w3.org/Graphics/SVG/1.1/DTD/svg11.dtd"><svg xmlns="http://www.w3.org/2000/svg" xmlns:xlink="http://www.w3.org/1999/xlink" version="1.1" id="mdi-map-marker-distance" width="24" height="24" viewBox="0 0 24 24"><path d="M6.5,8.11C5.61,8.11 4.89,7.39 4.89,6.5A1.61,1.61 0 0,1 6.5,4.89C7.39,4.89 8.11,5.61 8.11,6.5V6.5A1.61,1.61 0 0,1 6.5,8.11M6.5,2C4,2 2,4 2,6.5C2,9.87 6.5,14.86 6.5,14.86C6.5,14.86 11,9.87 11,6.5C11,4 9,2 6.5,2M17.5,8.11A1.61,1.61 0 0,1 15.89,6.5C15.89,5.61 16.61,4.89 17.5,4.89C18.39,4.89 19.11,5.61 19.11,6.5A1.61,1.61 0 0,1 17.5,8.11M17.5,2C15,2 13,4 13,6.5C13,9.87 17.5,14.86 17.5,14.86C17.5,14.86 22,9.87 22,6.5C22,4 20,2 17.5,2M17.5,16C16.23,16 15.1,16.8 14.68,18H9.32C8.77,16.44 7.05,15.62 5.5,16.17C3.93,16.72 3.11,18.44 3.66,20C4.22,21.56 5.93,22.38 7.5,21.83C8.35,21.53 9,20.85 9.32,20H14.69C15.24,21.56 16.96,22.38 18.5,21.83C20.08,21.28 20.9,19.56 20.35,18C19.92,16.8 18.78,16 17.5,16V16M17.5,20.5A1.5,1.5 0 0,1 16,19A1.5,1.5 0 0,1 17.5,17.5A1.5,1.5 0 0,1 19,19A1.5,1.5 0 0,1 17.5,20.5Z" /></svg>
